X: 44
T: Zou xikou
L: 1/8
M: 4/4
K: C
c> c c c/ A/ f g/ a/ g/ f/ d [I:setbarnb 1]| 
c2_B/ c/ dc4 | 
f d f> d c/ c/ f A G | 
F3D/ C/F4 | 
G> Ac4f3/ d/ | 
c> f A G cF2G | 
_B> G B c G F F D | 
DC2DC4 |]

@@@ Tune index: 8712
